X: 41543
T: Under The Willows She Is Sleeping
R: jig
M: 6/8
K: Gmajor
|:B3 cBc|d2g d2c|B3 BAG|FAD FAD|
B3 cBc|d2g d2c|B3 AdF|1 AGF G2A:|2 AGF G3||
|:g3 gfe|d2g d2c|B3 BAG|FAD FAD|
g3 gfe|d2g d2c|B3 AdF|AGF GBd|
g3 gfe|d2g d2c|B3 BAG|FAD FAD|
B3 cBc|d2g d2c|B3 AdF|AGF G3||

